www/assets/icons/device_unknown.svg

<svg xmlns="http://www.w3.org/2000/svg" width="24" height="24" viewBox="0 0 24 24" fill='currentColor'><path d="M17 1H7c-1.1 0-2 .9-2 2v18c0 1.1.9 2 2 2h10c1.1 0 2-.9 2-2V3c0-1.1-.9-2-2-2m0 18H7V5h10zM12 6.72c-1.96 0-3.5 1.52-3.5 3.47h1.75c0-.93.82-1.75 1.75-1.75s1.75.82 1.75 1.75c0 1.75-2.63 1.57-2.63 4.45h1.76c0-1.96 2.62-2.19 2.62-4.45 0-1.96-1.54-3.47-3.5-3.47m-.88 8.8h1.76v1.76h-1.76z"/></svg>

<svg width="24" height="24" viewBox="0 0 24 24" xmlns="http://www.w3.org/2000/svg" fill='currentColor'><path d="M17 1H7C5.9 1 5 1.9 5 3V21C5 22.1 5.9 23 7 23H17C18.1 23 19 22.1 19 21V3C19 1.9 18.1 1 17 1ZM17 19H7V5H17V19ZM12 6.72C10.04 6.72 8.5 8.24 8.5 10.19H10.25C10.25 9.26 11.07 8.44 12 8.44C12.93 8.44 13.75 9.26 13.75 10.19C13.75 11.94 11.12 11.76 11.12 14.64H12.88C12.88 12.68 15.5 12.45 15.5 10.19C15.5 8.23 13.96 6.72 12 6.72ZM11.12 15.52H12.88V17.28H11.12V15.52Z"/></svg>
